X: 1679
T: Whistling Mike   #2
R: hornpipe, reel
%S: s:2 b:13(6+7)
B: O'Neill's 1850 #1679
O: J.O'Neill
M: 2/4
L: 1/16
K: G
(3DEF | GABc dBgf | efge dBGB | cedc [1,3 BAGB | AGFE D2 :|[2,4 B>A (3GAB | A2G2 G2 :: (3def | gdBd edBd |
| gdBd edBd | gfed cBAG | F>A (3GFE D2 (3DEF || GABc dBgf | efge dBGB | cedc B>A (3GAB | A2G2 G2 :|
